X:299
T:Greenholm
C:Traditional Scottish
N:For the dance "Gigue for Genny" by Dan Herr
S:Colin Hume's website,  colinhume.com  - chords can also be printed below the stave.
Q:3/8=112
M:6/8
L:1/8
K:G
P:A
|:d | "G"dBG GBd | "C"efg g2e | "G"dBG "Em"GAB | "Am"A3 "D7"A2d | "G"dBG GBd | "C"efg g2e | "G"dBG "D7"ABA | "G"G3- G2 :|
P:B
B/c/ | "G"d2g gfg | "C"e2g gfe | "G"dBG "Em"GAB | "Am"A3 "D7"A2B/c/ | "G"d2g gfg | "C"e2g gfe | "G"dBG "D"ABA | "G"G3- G2B/c/ |]
"G"d2g gfg | "C"e2g gfe | "G"dBG "Em"GAB | "Am"A3 "D7"A2d | "G"dBG GBd | "C"efg g2e | "G"dBG "D7"ABA | "G"G3- G2 |]

